X:2
T:La Marion Plora
T:La Marion Plouro
R:bourree
Z:id:hn-bourree-2
M:3/8
L:1/16
Q:1/8=190
K:Dm
e2 |: a4 g2 | f2 e4 | ge f2 d2 | ^c2 d2 e2 |
a4 g2 | f2 e4 | ge f2 ef |1 d4 e2 :|2 d4 A2 ||
|: d4 ^c2 | d2 e4 | ge f2 d2 | ^c2 A=B ^c2 |
d4 ^c2 | d2 e4 | ge f2 ef |1 d4 A2 :|2 d4 ||

